assets/img/braze_icons/arrows-triangle.svg

<svg fill="none" height="24" viewBox="0 0 24 24" width="24" xmlns="http://www.w3.org/2000/svg"><g fill="#801ed7"><path d="m10.8072 2.08277c.761-.32976 1.6246-.32976 2.3856 0 .5339.23137.9206.65017 1.2516 1.09478.3258.43777.6843 1.02435 1.1143 1.72808l.995 1.62823.4804-1.79261c.1429-.53347.6912-.85005 1.2247-.70711s.8501.69128.7071 1.22474l-1.0981 4.09808c-.1429.53347-.6912.85004-1.2247.70714l-4.0981-1.09811c-.5334-.14294-.85-.69128-.7071-1.22474.143-.53347.6913-.85005 1.2248-.70711l1.7374.46554-.9229-1.51015c-.4616-.75532-.7727-1.26242-1.0372-1.61778-.2657-.35699-.3952-.43342-.4424-.45386-.2537-.10992-.5415-.10992-.7952 0-.0472.02044-.1767.09687-.4425.45386-.2645.35536-.5756.86246-1.0371 1.61779l-1.01986 1.6688c-.28799.47125-.90348.61982-1.37473.33183-.47126-.28799-.61983-.90348-.33184-1.37473l1.04489-1.70982c.43003-.70373.78848-1.2903 1.11433-1.72807.33095-.44461.71761-.86341 1.25161-1.09478z"/><path d="m3.09638 13.6519.95899-1.5693-1.79655.4814c-.53346.1429-1.0818-.1736-1.22474-.7071-.142944-.5335.17364-1.0818.70711-1.2247l4.09807-1.09812c.25618-.06865.52914-.03271.75882.0999s.39728.35102.46593.60722l.00596.0222c.01978.0545.03481.1106.04492.1677l1.04719 3.9082c.14294.5334-.17364 1.0818-.7071 1.2247-.53347.1429-1.08181-.1736-1.22475-.7071l-.46525-1.7364-.9364 1.5323c-.49662.8127-.83202 1.3635-1.04294 1.7923-.21402.4352-.21991.594-.2157.6421.025.2858.17154.5471.40237.7174.03885.0287.17739.1065.66031.1508.47594.0436 1.1208.0446 2.07318.0446h1.79422c.55228 0 1 .4477 1 1s-.44772 1-1 1h-1.84338c-.89076 0-1.6283.0001-2.20673-.053-.58206-.0534-1.17458-.1711-1.66525-.5332-.69249-.5111-1.13211-1.295-1.20712-2.1523-.05314-.6076.15544-1.1745.41339-1.699.25635-.5212.64095-1.1506 1.10545-1.9106z"/><path d="m19.8811 11.9786c-.288-.4713-.9035-.6198-1.3748-.3319-.4712.288-.6198.9035-.3318 1.3748l.9969 1.6313c.4967.8127.8321 1.3634 1.043 1.7923.214.4352.2199.594.2157.6421-.025.2858-.1716.5471-.4024.7174-.0388.0287-.1774.1064-.6603.1508-.4759.0436-1.1208.0446-2.0732.0446h-2.38l1.2929-1.2929c.3905-.3905.3905-1.0237 0-1.4142s-1.0237-.3905-1.4142 0l-3 3c-.3905.3905-.3905 1.0237 0 1.4142l3 3c.3905.3905 1.0237.3905 1.4142 0s.3905-1.0237 0-1.4142l-1.2929-1.2929h2.4292c.8907 0 1.6283.0001 2.2067-.053.5821-.0534 1.1746-.1711 1.6653-.5332.6924-.5111 1.1321-1.295 1.2071-2.1523.0531-.6076-.1555-1.1745-.4134-1.699-.2563-.5212-.6409-1.1504-1.1053-1.9103z"/></g></svg>

<svg width="24" height="24" viewBox="0 0 24 24" fill="none" xmlns="http://www.w3.org/2000/svg">
<path d="M10.8072 2.08277C11.5682 1.75301 12.4318 1.75301 13.1928 2.08277C13.7267 2.31414 14.1134 2.73294 14.4444 3.17755C14.7702 3.61532 15.1287 4.2019 15.5587 4.90563L16.5537 6.53386L17.0341 4.74125C17.177 4.20778 17.7253 3.8912 18.2588 4.03414C18.7923 4.17708 19.1089 4.72542 18.9659 5.25888L17.8678 9.35696C17.7249 9.89043 17.1766 10.207 16.6431 10.0641L12.545 8.96599C12.0116 8.82305 11.695 8.27471 11.8379 7.74125C11.9809 7.20778 12.5292 6.8912 13.0627 7.03414L14.8001 7.49968L13.8772 5.98953C13.4156 5.23421 13.1045 4.72711 12.84 4.37175C12.5743 4.01476 12.4448 3.93833 12.3976 3.91789C12.1439 3.80797 11.8561 3.80797 11.6024 3.91789C11.5552 3.93833 11.4257 4.01476 11.1599 4.37175C10.8954 4.72711 10.5843 5.23421 10.1228 5.98954L9.10294 7.65834C8.81495 8.12959 8.19946 8.27816 7.72821 7.99017C7.25695 7.70218 7.10838 7.08669 7.39637 6.61544L8.44126 4.90562C8.87129 4.20189 9.22974 3.61532 9.55559 3.17755C9.88654 2.73294 10.2732 2.31414 10.8072 2.08277Z" fill="#801ED7"/>
<path d="M3.09638 13.6519L4.05537 12.0826L2.25882 12.564C1.72536 12.7069 1.17702 12.3904 1.03408 11.8569C0.891136 11.3234 1.20772 10.7751 1.74119 10.6322L5.83926 9.53408C6.09544 9.46543 6.3684 9.50137 6.59808 9.63398C6.82776 9.76659 6.99536 9.985 7.06401 10.2412L7.06997 10.2634C7.08975 10.3179 7.10478 10.374 7.11489 10.4311L8.16208 14.3393C8.30502 14.8727 7.98844 15.4211 7.45498 15.564C6.92151 15.7069 6.37317 15.3904 6.23023 14.8569L5.76498 13.1205L4.82858 14.6528C4.33196 15.4655 3.99656 16.0163 3.78564 16.4451C3.57162 16.8803 3.56573 17.0391 3.56994 17.0872C3.59494 17.373 3.74148 17.6343 3.97231 17.8046C4.01116 17.8333 4.1497 17.9111 4.63262 17.9554C5.10856 17.999 5.75342 18 6.7058 18H8.50002C9.0523 18 9.50002 18.4477 9.50002 19C9.50002 19.5523 9.0523 20 8.50002 20H6.65664C5.76588 20 5.02834 20.0001 4.44991 19.947C3.86785 19.8936 3.27533 19.7759 2.78466 19.4138C2.09217 18.9027 1.65255 18.1188 1.57754 17.2615C1.5244 16.6539 1.73298 16.087 1.99093 15.5625C2.24728 15.0413 2.63188 14.4119 3.09638 13.6519Z" fill="#801ED7"/>
<path d="M19.8811 11.9786C19.5931 11.5073 18.9776 11.3588 18.5063 11.6467C18.0351 11.9347 17.8865 12.5502 18.1745 13.0215L19.1714 14.6528C19.6681 15.4655 20.0035 16.0162 20.2144 16.4451C20.4284 16.8803 20.4343 17.0391 20.4301 17.0872C20.4051 17.373 20.2585 17.6343 20.0277 17.8046C19.9889 17.8333 19.8503 17.911 19.3674 17.9554C18.8915 17.999 18.2466 18 17.2942 18H14.9142L16.2071 16.7071C16.5976 16.3166 16.5976 15.6834 16.2071 15.2929C15.8166 14.9024 15.1834 14.9024 14.7929 15.2929L11.7929 18.2929C11.4024 18.6834 11.4024 19.3166 11.7929 19.7071L14.7929 22.7071C15.1834 23.0976 15.8166 23.0976 16.2071 22.7071C16.5976 22.3166 16.5976 21.6834 16.2071 21.2929L14.9142 20L17.3434 20C18.2341 20 18.9717 20.0001 19.5501 19.947C20.1322 19.8936 20.7247 19.7759 21.2154 19.4138C21.9078 18.9027 22.3475 18.1188 22.4225 17.2615C22.4756 16.6539 22.267 16.087 22.0091 15.5625C21.7528 15.0413 21.3682 14.4121 20.9038 13.6522L19.8811 11.9786Z" fill="#801ED7"/>
</svg>
